Adwaita++-Dark/apps/16/preferences-desktop-online-accounts.svg

<svg height="16" width="16" xmlns="http://www.w3.org/2000/svg">
  <path d="m8.64 1.668c-2.158.002-3.992 1.331-4.869 3.232l-.06.13-.14.01c-1.993.145-3.571 1.87-3.571 3.968 0 2.193 1.716 3.992 3.837 3.992h9.285c1.592 0 2.878-1.35 2.878-2.988.004013-1.1917301-.707522-2.2694792-1.805-2.734l-.137-.059-.01-.148c-.135-2.994-2.487-5.4-5.404-5.403z" fill="#e6ddff"/>
</svg>

<svg xmlns="http://www.w3.org/2000/svg" width="16" height="16" version="1.1">
 <path fill="#E6DDFF" d="M 8.64,1.668 C 6.482,1.67 4.648,2.999 3.771,4.9 L 3.711,5.03 3.571,5.04 C 1.578,5.185 0,6.91 0,9.008 0,11.201 1.716,13 3.837,13 h 9.285 C 14.714,13 16,11.65 16,10.012 16.004013,8.8202699 15.292478,7.7425208 14.195,7.278 L 14.058,7.219 14.048,7.071 C 13.913,4.077 11.561,1.671 8.644,1.668 Z" font-weight="400" overflow="visible"/>
</svg>
